dist/images/icons/icon-instagram.svg

<svg width="20" height="20" viewBox="0 0 20 20" fill="none" xmlns="http://www.w3.org/2000/svg">
<path d="M9.74756 6.5284C7.95723 6.5284 6.49618 7.98945 6.49618 9.77978C6.49618 11.5701 7.95723 13.0312 9.74756 13.0312C11.5379 13.0312 12.9989 11.5701 12.9989 9.77978C12.9989 7.98945 11.5379 6.5284 9.74756 6.5284ZM19.4993 9.77978C19.4993 8.43338 19.5115 7.09916 19.4359 5.75519C19.3602 4.19414 19.0041 2.8087 17.8626 1.66718C16.7186 0.523218 15.3356 0.169542 13.7746 0.0939285C12.4282 0.0183149 11.094 0.0305107 9.75 0.0305107C8.40359 0.0305107 7.06938 0.0183149 5.72541 0.0939285C4.16435 0.169542 2.77892 0.525658 1.63739 1.66718C0.493433 2.81114 0.139757 4.19414 0.0641433 5.75519C-0.0114703 7.1016 0.00072551 8.43581 0.00072551 9.77978C0.00072551 11.1238 -0.0114703 12.4604 0.0641433 13.8044C0.139757 15.3654 0.495873 16.7509 1.63739 17.8924C2.78135 19.0364 4.16435 19.39 5.72541 19.4656C7.07182 19.5413 8.40603 19.5291 9.75 19.5291C11.0964 19.5291 12.4306 19.5413 13.7746 19.4656C15.3356 19.39 16.7211 19.0339 17.8626 17.8924C19.0066 16.7484 19.3602 15.3654 19.4359 13.8044C19.5139 12.4604 19.4993 11.1262 19.4993 9.77978V9.77978ZM9.74756 14.7825C6.97913 14.7825 4.74487 12.5482 4.74487 9.77978C4.74487 7.01135 6.97913 4.77709 9.74756 4.77709C12.516 4.77709 14.7503 7.01135 14.7503 9.77978C14.7503 12.5482 12.516 14.7825 9.74756 14.7825ZM14.9551 5.74056C14.3088 5.74056 13.7868 5.21858 13.7868 4.5722C13.7868 3.92583 14.3088 3.40385 14.9551 3.40385C15.6015 3.40385 16.1235 3.92583 16.1235 4.5722C16.1237 4.72569 16.0936 4.8777 16.035 5.01954C15.9763 5.16138 15.8903 5.29025 15.7817 5.39878C15.6732 5.50731 15.5443 5.59337 15.4025 5.65201C15.2606 5.71066 15.1086 5.74075 14.9551 5.74056V5.74056Z" fill="black"/>
</svg>

<svg width="20" height="20" fill="none" xmlns="http://www.w3.org/2000/svg"><path d="M9.748 6.528A3.258 3.258 0 006.496 9.78a3.258 3.258 0 003.252 3.251 3.258 3.258 0 003.25-3.251 3.258 3.258 0 00-3.25-3.252zm9.751 3.252c0-1.347.013-2.68-.063-4.025-.076-1.56-.432-2.946-1.573-4.088C16.719.523 15.336.17 13.775.094 12.428.018 11.094.03 9.75.03 8.404.03 7.07.018 5.725.094 4.165.17 2.78.526 1.637 1.667.493 2.811.14 4.194.064 5.755-.01 7.102.001 8.435.001 9.78c0 1.344-.012 2.68.063 4.024.076 1.561.432 2.947 1.573 4.088 1.144 1.144 2.527 1.498 4.088 1.574 1.347.075 2.681.063 4.025.063 1.346 0 2.68.012 4.025-.063 1.56-.076 2.946-.432 4.088-1.574 1.144-1.144 1.497-2.527 1.573-4.088.078-1.344.063-2.678.063-4.024zm-9.751 5.003A4.996 4.996 0 014.745 9.78a4.996 4.996 0 015.003-5.003A4.996 4.996 0 0114.75 9.78a4.996 4.996 0 01-5.002 5.003zm5.207-9.042a1.167 1.167 0 01-1.168-1.169c0-.646.522-1.168 1.168-1.168a1.167 1.167 0 01.827 1.995 1.167 1.167 0 01-.827.342z" fill="#000"/></svg>
